SVG_Azure_Grouped/Generic/User Privacy.svg

<?xml version="1.0" encoding="UTF-8" standalone="no"?>
<!DOCTYPE svg PUBLIC "-//W3C//DTD SVG 1.1//EN" "http://www.w3.org/Graphics/SVG/1.1/DTD/svg11.dtd">
<!-- Generated by Microsoft Visio, SVG Export User Privacy.svg Page-1 -->
<svg xmlns="http://www.w3.org/2000/svg" xmlns:xlink="http://www.w3.org/1999/xlink" xmlns:ev="http://www.w3.org/2001/xml-events"
		width="1.69273in" height="1.73206in" viewBox="0 0 121.876 124.709" xml:space="preserve" color-interpolation-filters="sRGB"
		class="st6">
	<style type="text/css">
	<![CDATA[
		.st1 {fill:url(#grad0-6);stroke:none;stroke-linecap:butt;stroke-width:34}
		.st2 {fill:#ffffff;fill-opacity:0.8;stroke:none;stroke-linecap:butt;stroke-width:34}
		.st3 {fill:url(#grad0-12);stroke:none;stroke-linecap:butt;stroke-width:34}
		.st4 {fill:#005ba1;stroke:none;stroke-linecap:butt;stroke-width:34}
		.st5 {fill:url(#grad0-18);stroke:none;stroke-linecap:butt;stroke-width:34}
		.st6 {fill:none;fill-rule:evenodd;font-size:12px;overflow:visible;stroke-linecap:square;stroke-miterlimit:3}
	]]>
	</style>

	<defs id="Patterns_And_Gradients">
		<linearGradient id="grad0-6" x1="0" y1="0" x2="1" y2="0" gradientTransform="rotate(90 0.5 0.5)">
			<stop offset="0.22" stop-color="#32d4f5" stop-opacity="1"/>
			<stop offset="1" stop-color="#198ab3" stop-opacity="1"/>
		</linearGradient>
		<linearGradient id="grad0-12" x1="0" y1="0" x2="1" y2="0" gradientTransform="rotate(85.391932192489 0.5 0.5)">
			<stop offset="0.22" stop-color="#32d4f5" stop-opacity="1"/>
			<stop offset="1" stop-color="#198ab3" stop-opacity="1"/>
		</linearGradient>
		<linearGradient id="grad0-18" x1="0" y1="0" x2="1" y2="0" gradientTransform="rotate(-90 0.5 0.5)">
			<stop offset="0" stop-color="#1988d9" stop-opacity="1"/>
			<stop offset="0.9" stop-color="#54aef0" stop-opacity="1"/>
		</linearGradient>
	</defs>
	<g>
		<title>Page-1</title>
		<g id="group16069-1" transform="translate(34.0182,-34.0157)">
			<title>User Privacy.16069</title>
			<g id="group16070-2">
				<title>Icon-manage-303</title>
				<g id="shape16071-3" transform="translate(0,-4.82506)">
					<title>path4</title>
					<path d="M43.52 124.71 A4.24134 4.1947 -180 0 0 47.77 120.55 A2.55827 2.53014 -180 0 0 47.77 120.05 C46.12 106.73
								 38.51 96.14 24.2 96.14 C9.9 96.14 1.62 105.23 0 120.08 A4.275 4.228 -180 0 0 3.8 124.68 L43.52 124.68
								 L43.52 124.71 Z" class="st1"/>
				</g>
				<g id="shape16072-7" transform="translate(16.8307,-13.8803)">
					<title>path6</title>
					<path d="M7.17 108.33 A13.2626 13.1168 0 0 1 0 106.2 L7.07 124.71 L14.21 106.33 A13.4646 13.3165 0 0 1 7.17 108.33
								 Z" class="st2"/>
				</g>
				<g id="shape16073-9" transform="translate(10.637,-30.2596)">
					<title>circle8</title>
					<ellipse cx="13.3636" cy="111.492" rx="13.3636" ry="13.2166" class="st3"/>
				</g>
				<g id="shape16074-13" transform="translate(30.2953,1.42109E-14)">
					<title>path10</title>
					<path d="M23.56 109.63 C23.56 117.22 14.27 123.35 12.25 124.61 a0.807874 0.798991 0 0 1 -0.774213 0 C9.32 123.25
								 0 117.12 0 109.63 L0 100.37 a0.740551 0.732409 0 0 1 0.70689 -0.732409 C7.94 99.44 6.29 96.31 11.71
								 96.31 C17.13 96.31 15.45 99.44 22.69 99.64 a0.740551 0.732409 0 0 1 0.70689 0.732409 L23.56 109.63
								 Z" class="st4"/>
				</g>
				<g id="shape16075-15" transform="translate(31.3051,-1.23034)">
					<title>path12</title>
					<path d="M21.44 110.86 C21.44 117.85 12.93 123.48 11.07 124.61 a0.673228 0.665826 0 0 1 -0.70689 1.42109E-14
								 C8.52 123.48 0 117.95 0 110.86 L0 102.44 a0.639567 0.632535 0 0 1 0.639567 -0.665826 C7.37 101.77
								 5.76 98.71 10.74 98.71 C15.72 98.71 14.1 101.61 20.84 101.77 a0.639567 0.632535 0 0 1 0.639567 0.665826
								 L21.44 110.86 Z" class="st5"/>
				</g>
			</g>
		</g>
	</g>
</svg>

<?xml version="1.0" encoding="UTF-8" standalone="no"?>
<!-- Generated by Microsoft Visio, SVG Export User Privacy.svg Page-1 -->

<svg
   xmlns:dc="http://purl.org/dc/elements/1.1/"
   xmlns:cc="http://creativecommons.org/ns#"
   xmlns:rdf="http://www.w3.org/1999/02/22-rdf-syntax-ns#"
   xmlns:svg="http://www.w3.org/2000/svg"
   xmlns="http://www.w3.org/2000/svg"
   xmlns:sodipodi="http://sodipodi.sourceforge.net/DTD/sodipodi-0.dtd"
   xmlns:inkscape="http://www.inkscape.org/namespaces/inkscape"
   width="0.74824739in"
   height="0.7873832in"
   viewBox="0 0 53.873566 56.691901"
   xml:space="preserve"
   class="st6"
   version="1.1"
   id="svg55"
   sodipodi:docname="User Privacy.svg"
   style="font-size:12px;overflow:visible;color-interpolation-filters:sRGB;fill:none;fill-rule:evenodd;stroke-linecap:square;stroke-miterlimit:3"
   inkscape:version="0.92.5 (2060ec1f9f, 2020-04-08)"><metadata
   id="metadata59"><rdf:RDF><cc:Work
       rdf:about=""><dc:format>image/svg+xml</dc:format><dc:type
         rdf:resource="http://purl.org/dc/dcmitype/StillImage" /></cc:Work></rdf:RDF></metadata><sodipodi:namedview
   pagecolor="#ffffff"
   bordercolor="#666666"
   borderopacity="1"
   objecttolerance="10"
   gridtolerance="10"
   guidetolerance="10"
   inkscape:pageopacity="0"
   inkscape:pageshadow="2"
   inkscape:window-width="640"
   inkscape:window-height="480"
   id="namedview57"
   showgrid="false"
   inkscape:zoom="1.4193119"
   inkscape:cx="35.917944"
   inkscape:cy="37.783123"
   inkscape:window-x="0"
   inkscape:window-y="0"
   inkscape:window-maximized="0"
   inkscape:current-layer="svg55" />
	<style
   type="text/css"
   id="style2">
	<![CDATA[
		.st1 {fill:url(#grad0-6);stroke:none;stroke-linecap:butt;stroke-width:34}
		.st2 {fill:#ffffff;fill-opacity:0.8;stroke:none;stroke-linecap:butt;stroke-width:34}
		.st3 {fill:url(#grad0-12);stroke:none;stroke-linecap:butt;stroke-width:34}
		.st4 {fill:#005ba1;stroke:none;stroke-linecap:butt;stroke-width:34}
		.st5 {fill:url(#grad0-18);stroke:none;stroke-linecap:butt;stroke-width:34}
		.st6 {fill:none;fill-rule:evenodd;font-size:12px;overflow:visible;stroke-linecap:square;stroke-miterlimit:3}
	]]>
	</style>

	<defs
   id="Patterns_And_Gradients">
		<linearGradient
   id="grad0-6"
   x1="-0.014538832"
   y1="124.35662"
   x2="36.940627"
   y2="124.35662"
   gradientTransform="scale(1.2934951,0.7730992)"
   gradientUnits="userSpaceOnUse">
			<stop
   offset="0.22"
   stop-color="#32d4f5"
   stop-opacity="1"
   id="stop4" />
			<stop
   offset="1"
   stop-color="#198ab3"
   stop-opacity="1"
   id="stop6" />
		</linearGradient>
		<linearGradient
   id="grad0-12"
   x1="-1.7665599e-15"
   y1="98.820411"
   x2="26.579794"
   y2="98.820411"
   gradientTransform="scale(1.0055458,0.9944848)"
   gradientUnits="userSpaceOnUse">
			<stop
   offset="0.22"
   stop-color="#32d4f5"
   stop-opacity="1"
   id="stop9" />
			<stop
   offset="1"
   stop-color="#198ab3"
   stop-opacity="1"
   id="stop11" />
		</linearGradient>
		<linearGradient
   id="grad0-18"
   x1="-0.00097546295"
   y1="89.724769"
   x2="23.631553"
   y2="89.724769"
   gradientTransform="scale(0.90897344,1.1001422)"
   gradientUnits="userSpaceOnUse">
			<stop
   offset="0"
   stop-color="#1988d9"
   stop-opacity="1"
   id="stop14" />
			<stop
   offset="0.9"
   stop-color="#54aef0"
   stop-opacity="1"
   id="stop16" />
		</linearGradient>
	</defs>
	<g
   id="g53"
   transform="translate(-34.000006,-34.000096)">
		<title
   id="title20">Page-1</title>
		<g
   id="group16452-1"
   transform="translate(34.0182,-34.0157)">
			<title
   id="title22">User Privacy.16452</title>
			<g
   id="group16453-2">
				<title
   id="title24">Icon-manage-303</title>
				<g
   id="shape16454-3"
   transform="translate(0,-4.82506)">
					<title
   id="title26">path4</title>
					<path
   d="m 43.52,124.71 a 4.24134,4.1947 -180 0 0 4.25,-4.16 2.55827,2.53014 -180 0 0 0,-0.5 C 46.12,106.73 38.51,96.14 24.2,96.14 9.9,96.14 1.62,105.23 0,120.08 a 4.275,4.228 -180 0 0 3.8,4.6 h 39.72 z"
   class="st1"
   id="path28"
   inkscape:connector-curvature="0"
   style="fill:url(#grad0-6);stroke:none;stroke-width:34;stroke-linecap:butt" />
				</g>
				<g
   id="shape16455-7"
   transform="translate(16.8307,-13.8803)">
					<title
   id="title31">path6</title>
					<path
   d="M 7.17,108.33 A 13.2626,13.1168 0 0 1 0,106.2 l 7.07,18.51 7.14,-18.38 a 13.4646,13.3165 0 0 1 -7.04,2 z"
   class="st2"
   id="path33"
   inkscape:connector-curvature="0"
   style="fill:#ffffff;fill-opacity:0.8;stroke:none;stroke-width:34;stroke-linecap:butt" />
				</g>
				<g
   id="shape16456-9"
   transform="translate(10.637,-30.2596)">
					<title
   id="title36">circle8</title>
					<ellipse
   cx="13.3636"
   cy="111.492"
   rx="13.3636"
   ry="13.2166"
   class="st3"
   id="ellipse38"
   style="fill:url(#grad0-12);stroke:none;stroke-width:34;stroke-linecap:butt" />
				</g>
				<g
   id="shape16457-13"
   transform="translate(30.2953)">
					<title
   id="title41">path10</title>
					<path
   d="m 23.56,109.63 c 0,7.59 -9.29,13.72 -11.31,14.98 a 0.807874,0.798991 0 0 1 -0.774213,0 C 9.32,123.25 0,117.12 0,109.63 v -9.26 A 0.740551,0.732409 0 0 1 0.70689,99.637591 C 7.94,99.44 6.29,96.31 11.71,96.31 c 5.42,0 3.74,3.13 10.98,3.33 a 0.740551,0.732409 0 0 1 0.70689,0.73241 z"
   class="st4"
   id="path43"
   inkscape:connector-curvature="0"
   style="fill:#005ba1;stroke:none;stroke-width:34;stroke-linecap:butt" />
				</g>
				<g
   id="shape16458-15"
   transform="translate(31.3051,-1.23034)">
					<title
   id="title46">path12</title>
					<path
   d="m 21.44,110.86 c 0,6.99 -8.51,12.62 -10.37,13.75 a 0.673228,0.665826 0 0 1 -0.70689,0 C 8.52,123.48 0,117.95 0,110.86 v -8.42 a 0.639567,0.632535 0 0 1 0.639567,-0.66583 C 7.37,101.77 5.76,98.71 10.74,98.71 c 4.98,0 3.36,2.9 10.1,3.06 a 0.639567,0.632535 0 0 1 0.639567,0.66583 z"
   class="st5"
   id="path48"
   inkscape:connector-curvature="0"
   style="fill:url(#grad0-18);stroke:none;stroke-width:34;stroke-linecap:butt" />
				</g>
			</g>
		</g>
	</g>
</svg>
